X:1
T:The Girls At Home
M:4/4
L:1/4
K:A
 z2 z E/2E/2| F E E E/2E/2| F A A F/2F/2| E A c/2B/2 B| B3 c/2d/2|\
 e A A E/2E/2| F A A F/2F/2| E A B G| A3 c/2c/2| B E B3/2 B/2| c A c3/2 c/2|\
 d d c A| B3 c/2d/2| e A A E/2E/2| F A A F/2F/2| E A/2A/2 B G| A3 z|\
||
